X: 18336
T: Humours Of Westport, The
R: reel
M: 4/4
K: Dmajor
|:d2dc dAFA|d2d2cdec|d2dc dAFA|GFEF GABc|
d2dc dAFA|d2d2cdeg|fdec dBAF|1 GFEF GABc:|2 GFEF GBAG||
|:F/E/D AD BDAD|FDAF GBAG|F/E/D AD BDAF|GFEF GBAG|
F/E/D AD BDAD|FDAF GBAG|FAdf ecAF|1 GFEF GBAG:|2 GFEF GABc||

